X:1687
T:Dudelsackmelodie
O:england
R:Ländler
C:trad.
S:Aufgezeichnet 1907 von R. Zoder
A:Gundschachen
P:2
M:3/4
L:1/8
K:G
(Bc)|(dedc)(Bc)|(dedc)(Bc)|c2B2A2|BABcd2|\
(dedc)(Bc)|(dedc)(Bc)|c2B2A2|G4:|z2|
|:(e2c2)c2|(cd)e4|(d2B2)B2|(Bc)d4|\
(c2A2)A2|(AB)c2A2|(dedc)(BA)|G6:|


